X:1
T:Title
%%score { 1 | 2 }
L:1/8
M:6/8
K:Bb
V:1 treble nm="Grand Piano"
V:2 bass 
V:1
 z3 z2[Q:1/4=84] [DF] | [DF]>[EG][EA] [DB][DF][DF] | G>AB [=Ec]2 [EB] | A>GF edc | %4
 [Ec]>[DB][EG] [DF]2 [DF] | [DF]>[DB][Ec] def | [Ge][GB][Gc] [^Fd]2 [Fd] | [Gc]>[GB]G F>FF | %8
 F>Ac [DB]3 | [DF]>[B,D][DF] [DB]3 | [Fd]>[Fc][FB] c2 F | F>AB cde | eBc d3 | d>_d=d f3 | %14
[M:7/8] [Ge]>[GB][Gc] [^Fd]3 [Fd] |[M:3/4] [Gc]>[GB] GF- F/F/F |[M:5/8] F>Ac [DB]2 |] %17
V:2
 z3 z2 [B,,B,] | [B,,B,]>[B,,B,][B,,F,] [B,,F,][B,,B,][B,,B,] | %2
 [E,B,E]>[E,A,E][E,G,E] [C,G,]2 [C,C] | [F,CF]>[F,B,F][F,A,] [F,A,F][F,B,F][F,E] | %4
 [B,,F,]>[B,,F,][B,,B,] [B,,B,]2 [B,,B,] | [B,,B,]>[B,,B,][B,,B,][K:treble] [B,F][B,G][B,_A] | %6
 [E,B,][E,B,][E,G,] [D,A,]2 [D,A,] | [E,G,]>[E,G,][E,B,E] [F,B,D]>[F,D][F,D] | %8
 [F,CE]>[F,E][F,E] [B,,F,]3 | [B,,B,]>[B,,F,][B,,B,] [B,,F,]3 | %10
 [B,,B,]>[C,A,][D,B,] [F,A,F]2 [F,A,] | [F,A,]>[K:treble][F,F][F,G,F] [F,A,F][F,B,F][F,CF] | %12
 [F,CF][F,DF][F,A,F] [B,F]3 | [B,F]>[B,=E][B,F] [B,_A]3 | %14
[M:7/8][K:bass] [E,B,]>[E,B,][E,G,] [D,A,]3 [D,A,] | %15
[M:3/4] [E,G,]>[E,G,] [E,B,E][F,B,D]- [F,B,D]/[F,D]/[F,D] |[M:5/8] [F,CE]>[F,E][F,E] [B,,F,]2 |] %17

